X:47
T:La boulangre del pallars
C:trad
A:Catalogne
O:France
Z:S.Piron
M:6/8
L:1/8
Q:1/4=220
K:C
GAB|:c2cc2c|d3A2B|c2BA2B|1G3 GAB:|2G2 EE2E|
|F2F A2A|G3 EDE|F2F A2A|G3 EDE|F2F A2A|G3 EDE|F2GA2B|c3 GAB||
